Gruvbox-Plus-Dark/actions/16/run-build-prune.svg

<svg xmlns="http://www.w3.org/2000/svg" width="16" height="16" version="1.1" viewBox="0 0 16 16">
 <defs>
  <style id="current-color-scheme" type="text/css">
   .ColorScheme-Text { color:#ebdbb2; } .ColorScheme-Highlight { color:#458588; }
  </style>
 </defs>
 <path style="fill:currentColor" class="ColorScheme-Text" d="M 7 1 L 7 2.0859375 A 6 6 0 0 0 4.5292969 3.1152344 L 3.7578125 2.34375 L 2.34375 3.7578125 L 3.1132812 4.5273438 A 6 6 0 0 0 2.0898438 7 L 1 7 L 1 9 L 2.0859375 9 A 6 6 0 0 0 3.1152344 11.470703 L 2.34375 12.242188 L 3.7578125 13.65625 L 4.5273438 12.886719 A 6 6 0 0 0 7 13.910156 L 7 15 L 9 15 L 9 13.914062 A 6 6 0 0 0 11.470703 12.884766 L 12.242188 13.65625 L 13.65625 12.242188 L 12.886719 11.472656 A 6 6 0 0 0 13.910156 9 L 15 9 L 15 7 L 13.914062 7 A 6 6 0 0 0 12.884766 4.5292969 L 13.65625 3.7578125 L 12.242188 2.34375 L 11.472656 3.1132812 A 6 6 0 0 0 9 2.0898438 L 9 1 L 7 1 z M 5 5 L 6.4140625 5 L 6.5859375 5.171875 L 8 6.5859375 L 9.4140625 5.171875 L 9.5859375 5 L 11 5 L 11 6.4140625 L 10.828125 6.5859375 L 9.4140625 8 L 10.828125 9.4140625 L 11 9.5859375 L 11 11 L 9.5859375 11 L 9.4140625 10.828125 L 8 9.4140625 L 6.5859375 10.828125 L 6.4140625 11 L 5 11 L 5 9.5859375 L 5.171875 9.4140625 L 6.5859375 8 L 5.171875 6.5859375 L 5 6.4140625 L 5 5 z"/>
</svg>

<svg width="16" height="16" version="1.1" viewBox="0 0 16 16" xmlns="http://www.w3.org/2000/svg">
  <defs>
    <style type="text/css">.ColorScheme-Text { color:#ebdbb2; } .ColorScheme-Highlight { color:#458588; }</style>
  </defs>
  <path class="ColorScheme-Text" d="m7 1v1.086c-0.8906 0.1527-1.735 0.5045-2.471 1.029l-0.7715-0.7715-1.414 1.414 0.7695 0.7695c-0.5229 0.7367-0.8728 1.582-1.023 2.473h-1.09v2h1.086c0.1527 0.8906 0.5045 1.735 1.029 2.471l-0.7715 0.7715 1.414 1.414 0.7695-0.7695c0.7367 0.5229 1.582 0.8728 2.473 1.023v1.09h2v-1.086c0.8906-0.1527 1.735-0.5045 2.471-1.029l0.7715 0.7715 1.414-1.414-0.7695-0.7695c0.5229-0.7367 0.8728-1.582 1.023-2.473h1.09v-2h-1.086c-0.1527-0.8906-0.5045-1.735-1.029-2.471l0.7715-0.7715-1.414-1.414-0.7695 0.7695c-0.7367-0.5229-1.582-0.8728-2.473-1.023v-1.09zm-2 4h1.414l1.586 1.586 1.586-1.586h1.414v1.414l-1.586 1.586 1.586 1.586v1.414h-1.414l-1.586-1.586-1.586 1.586h-1.414v-1.414l1.586-1.586-1.586-1.586z" fill="currentColor"/>
</svg>
